images/favicon/favicon.svg

<svg width="512" height="512" viewBox="0 0 512 512" fill="none" xmlns="http://www.w3.org/2000/svg">
<path fill-rule="evenodd" clip-rule="evenodd" d="M91.5898 0C41.0062 0 0 42.1347 0 94.1106V417.889C0 469.865 41.0062 512 91.5899 512H420.41C470.994 512 512 469.865 512 417.889V94.1106C512 42.1348 470.994 0 420.41 0H91.5898Z" fill="#f43f5e"/>
<path fill-rule="evenodd" clip-rule="evenodd" d="M91.5898 0C41.0062 0 0 42.1347 0 94.1106V417.889C0 469.865 41.0062 512 91.5899 512H420.41C470.994 512 512 469.865 512 417.889V94.1106C512 42.1348 470.994 0 420.41 0H91.5898Z" fill="#f43f5e"/>
<path fill-rule="evenodd" clip-rule="evenodd" d="M53 67.2449C53 59.3777 59.3777 53 67.2449 53H199.956C207.824 53 214.201 59.3777 214.201 67.2449V205.996C214.201 213.863 207.824 220.241 199.956 220.241H67.2449C59.3777 220.241 53 213.863 53 205.996V67.2449ZM81.4899 81.4899V191.751H185.711V81.4899H81.4899ZM253.758 53C261.625 53 268.003 59.3777 268.003 67.2449V256.45C268.003 264.317 261.625 270.695 253.758 270.695H67.2449C59.3777 270.695 53 264.317 53 256.45C53 248.583 59.3777 242.205 67.2449 242.205H239.513V67.2449C239.513 59.3777 245.891 53 253.758 53ZM297.799 67.2449C297.799 59.3777 304.176 53 312.044 53H444.755C452.622 53 459 59.3777 459 67.2449V205.996C459 213.863 452.622 220.241 444.755 220.241H312.044C304.176 220.241 297.799 213.863 297.799 205.996V67.2449ZM326.289 81.4899V191.751H430.51V81.4899H326.289ZM312.044 242.205C319.911 242.205 326.289 248.583 326.289 256.45V327.628C326.289 335.495 319.911 341.873 312.044 341.873H268.003V444.755C268.003 452.622 261.625 459 253.758 459C245.891 459 239.513 452.622 239.513 444.755V327.628C239.513 319.761 245.891 313.383 253.758 313.383H297.799V256.45C297.799 248.583 304.176 242.205 312.044 242.205ZM352.497 256.45C352.497 248.583 358.875 242.205 366.742 242.205H444.755C452.622 242.205 459 248.583 459 256.45C459 264.317 452.622 270.695 444.755 270.695H380.987V313.383H444.755C452.622 313.383 459 319.761 459 327.628C459 335.495 452.622 341.873 444.755 341.873H366.742C358.875 341.873 352.497 335.495 352.497 327.628V256.45ZM53 306.004C53 298.137 59.3777 291.759 67.245 291.759H199.956C207.824 291.759 214.201 298.137 214.201 306.004V444.755C214.201 452.622 207.824 459 199.956 459H67.245C59.3777 459 53 452.622 53 444.755V306.004ZM81.4899 320.249V430.51H185.711V320.249H81.4899ZM287.935 379.885C287.935 372.017 294.313 365.64 302.18 365.64H421.441C429.308 365.64 435.686 372.017 435.686 379.885V444.755C435.686 452.622 429.308 459 421.441 459C413.574 459 407.196 452.622 407.196 444.755V394.13H365.743V444.755C365.743 452.622 359.366 459 351.498 459C343.631 459 337.253 452.622 337.253 444.755V394.13H302.18C294.313 394.13 287.935 387.752 287.935 379.885Z" fill="white"/>
</svg>

<svg width="512" height="512" fill="none" xmlns="http://www.w3.org/2000/svg"><path fill-rule="evenodd" clip-rule="evenodd" d="M91.59 0C41.006 0 0 42.135 0 94.11v323.78C0 469.865 41.006 512 91.59 512h328.82c50.584 0 91.59-42.135 91.59-94.111V94.111C512 42.135 470.994 0 420.41 0H91.59Z" fill="#f43f5e"/><path fill-rule="evenodd" clip-rule="evenodd" d="M91.59 0C41.006 0 0 42.135 0 94.11v323.78C0 469.865 41.006 512 91.59 512h328.82c50.584 0 91.59-42.135 91.59-94.111V94.111C512 42.135 470.994 0 420.41 0H91.59Z" fill="#f43f5e"/><path fill-rule="evenodd" clip-rule="evenodd" d="M53 67.245C53 59.378 59.378 53 67.245 53h132.711c7.868 0 14.245 6.378 14.245 14.245v138.751c0 7.867-6.377 14.245-14.245 14.245H67.245c-7.867 0-14.245-6.378-14.245-14.245V67.245ZM81.49 81.49v110.26h104.22V81.49H81.49ZM253.758 53c7.867 0 14.245 6.378 14.245 14.245V256.45c0 7.867-6.378 14.245-14.245 14.245H67.245c-7.867 0-14.245-6.378-14.245-14.245 0-7.867 6.378-14.245 14.245-14.245h172.268V67.245c0-7.867 6.378-14.245 14.245-14.245Zm44.041 14.245c0-7.867 6.377-14.245 14.245-14.245h132.711C452.622 53 459 59.378 459 67.245v138.751c0 7.867-6.378 14.245-14.245 14.245H312.044c-7.868 0-14.245-6.378-14.245-14.245V67.245Zm28.49 14.245v110.26H430.51V81.49H326.289Zm-14.245 160.715c7.867 0 14.245 6.378 14.245 14.245v71.178c0 7.867-6.378 14.245-14.245 14.245h-44.041v102.882c0 7.867-6.378 14.245-14.245 14.245-7.867 0-14.245-6.378-14.245-14.245V327.628c0-7.867 6.378-14.245 14.245-14.245h44.041V256.45c0-7.867 6.377-14.245 14.245-14.245Zm40.453 14.245c0-7.867 6.378-14.245 14.245-14.245h78.013c7.867 0 14.245 6.378 14.245 14.245 0 7.867-6.378 14.245-14.245 14.245h-63.768v42.688h63.768c7.867 0 14.245 6.378 14.245 14.245 0 7.867-6.378 14.245-14.245 14.245h-78.013c-7.867 0-14.245-6.378-14.245-14.245V256.45ZM53 306.004c0-7.867 6.378-14.245 14.245-14.245h132.711c7.868 0 14.245 6.378 14.245 14.245v138.751c0 7.867-6.377 14.245-14.245 14.245H67.245C59.378 459 53 452.622 53 444.755V306.004Zm28.49 14.245V430.51h104.22V320.249H81.49Zm206.445 59.636c0-7.868 6.378-14.245 14.245-14.245h119.261c7.867 0 14.245 6.377 14.245 14.245v64.87c0 7.867-6.378 14.245-14.245 14.245-7.867 0-14.245-6.378-14.245-14.245V394.13h-41.453v50.625c0 7.867-6.377 14.245-14.245 14.245-7.867 0-14.245-6.378-14.245-14.245V394.13H302.18c-7.867 0-14.245-6.378-14.245-14.245Z" fill="#fff"/></svg>
